X:16
T:Go to the Devil and Shake Yourself. TJD.16
M:6/8
L:1/8
Q:3/8=120
S:T.J.Dixon MS1,Lincolnshire, 1798
R:jig
N:dot added to final c
A:Lincolnshire, Holton le Moor
Z:vmp.R.Greig2010
K:C
Gcc cBA|GEG GEG|c2c dcd|ecAA3|Gcc cBA|!
GAG GEG|c2c dcd|eccc3::gec cBc|AFF F3|!
afd ded|BGGG3|Gcc cBA|GAG GEG|cBc dcd|ecc c3:|]

